X:1
T:Title
L:1/8
M:4/4
K:G
V:1 treble nm="Grand Piano"
V:1
 z4[Q:1/4=90] z D DG/G/- | GG GF/F/- F4- | FE ED/D/- DC[K:bass] B,C/B,/- | %3
 B,4- B,[K:treble]G FG/F/- | FG- G/FE/ E4- | EE EG/E/- EE GA/B/- |[M:5/8] B-B- B3 | %7
[M:3/8] ^GGA/B/- |[M:4/4] B^G AB/c/- c4- | cF FG/A/- Ad d/e/d/B/- | B4- BE EF/G/- | GE FG/A/- A4- | %12
 AB BA/G/- GG GF/E/- | E4 z4 |] %14

